public/assets/ui/arrow-up-circle.svg

<svg version="1.1" id="_x32_" xmlns="http://www.w3.org/2000/svg" viewBox="0 0 512 512" xml:space="preserve">
<path d="M256,0C114.613,0,0,114.614,0,256c0,141.387,114.613,256,256,256s256-114.613,256-256C512,114.614,397.387,0,256,0z M374.427,291.355c-11.79,11.218-30.452,10.75-41.653-1.032l-47.306-49.726v117.799c0,16.282-13.185,29.467-29.468,29.467c-16.282,0-29.46-13.186-29.46-29.467V240.597l-47.314,49.726c-11.194,11.783-29.864,12.25-41.645,1.032c-11.798-11.218-12.267-29.863-1.032-41.653L252.605,127.71c0.887-0.927,2.113-1.452,3.395-1.452c1.282,0,2.508,0.524,3.396,1.452L375.46,249.702C386.686,261.492,386.226,280.138,374.427,291.355z" fill="#00d8f0"/>
</svg>

<svg width="512" height="512" viewBox="0 0 512 512" fill="none" xmlns="http://www.w3.org/2000/svg">
<g clip-path="url(#clip0_1_8)">
<path d="M256 0C114.613 0 0 114.614 0 256C0 397.387 114.613 512 256 512C397.387 512 512 397.387 512 256C512 114.614 397.387 0 256 0ZM374.427 291.355C362.637 302.573 343.975 302.105 332.774 290.323L285.468 240.597V358.396C285.468 374.678 272.283 387.863 256 387.863C239.718 387.863 226.54 374.677 226.54 358.396V240.597L179.226 290.323C168.032 302.106 149.362 302.573 137.581 291.355C125.783 280.137 125.314 261.492 136.549 249.702L252.605 127.71C253.492 126.783 254.718 126.258 256 126.258C257.282 126.258 258.508 126.782 259.396 127.71L375.46 249.702C386.686 261.492 386.226 280.138 374.427 291.355Z" fill="#00D8F0"/>
<path d="M374.427 291.355C362.637 302.573 343.975 302.105 332.774 290.323L285.468 240.597V358.396C285.468 374.678 272.283 387.863 256 387.863C239.718 387.863 226.54 374.677 226.54 358.396V240.597L179.226 290.323C168.032 302.106 149.362 302.573 137.581 291.355C125.783 280.137 125.314 261.492 136.549 249.702L252.605 127.71C253.492 126.783 254.718 126.258 256 126.258C257.282 126.258 258.508 126.782 259.396 127.71L375.46 249.702C386.686 261.492 386.226 280.138 374.427 291.355Z" fill="black"/>
</g>
<defs>
<clipPath id="clip0_1_8">
<rect width="512" height="512" fill="white"/>
</clipPath>
</defs>
</svg>
